src/symbolic/actions/dino-tick-symbolic.svg

<svg xmlns="http://www.w3.org/2000/svg" width="16" height="16" version="1.1">
 <path style="fill:#555555" d="M 11.03,3.0302 C 10.81,3.0802 10.61,3.2002 10.47,3.3702 L 4.19,10.56 1.94,8.3102 C 1.56,7.9302 0.88,7.9302 0.5,8.3102 0.12,8.6902 0.12,9.3702 0.5,9.7502 L 3.5,12.75 4.28,13.5 4.97,12.69 11.97,4.6902 C 12.53,4.0702 11.85,2.8602 11.03,3.0302 Z"/>
</svg>

<svg xmlns="http://www.w3.org/2000/svg" width="16" height="16"><path d="M11.03 3.03c-.22.05-.42.17-.56.34l-6.28 7.19-2.25-2.25c-.38-.38-1.06-.38-1.44 0-.38.38-.38 1.06 0 1.44l3 3 .78.75.69-.81 7-8c.56-.62-.12-1.83-.94-1.66z" fill="#5d656b"/></svg>
